X: 43
T: The Glenside
B: begged borrowed and stolen
M:2/4
L:1/8
R: polka
Q: 1/4=100
K:Edorian
V:1 
|:"Em"B2BA|"D"F/G/A D2|"Em"B2 BA|"D"B/c/d ed|
"Em" B2 BA|"D"F/G/A D>E|"Em"FD "D"AF|1 "Em"E2 E2:|2 "Em"E2 EA||
 |:"Em"Be e>f|ed BA|Be ef|ed Bc|
 "G"d>e dB|"D"AF D>E|"Em"FD "D"AF|"Em"E2 E2:|
% abcbook-tune_id 62828a3a60520e661457e0fd


% abcbook-boost 0
% abcbook-tablature 
% abcbook-transpose 
% abcbook-lastupdated 1652725431073
% abcbook-soundfonts 
% abcbook-repeats 3
% abc-sessionorg_id 534
% abc-sessionorg_setting 0
% abc-sessionorg_setting_id 534
% abc-boost 0

